icon-themes/breeze_svg/cmd/32/movedownsubitems.svg

<svg viewBox="0 0 32 32" xmlns="http://www.w3.org/2000/svg"><path d="m4 4v1h24v-1zm0 3v1h19v-1zm10 7v1h14v-1zm0 3v1h4v-1zm6 0v1h8v-1zm-6 7v1h14v-1zm0 3v1h8v-1zm10 1v1h4v-1z" fill="#4d4d4d"/><path d="m4 13 4 6 4-6z" fill="#1d99f3"/></svg>

<svg xmlns="http://www.w3.org/2000/svg" viewBox="0 0 32 32">
 <path 
     style="fill:#4d4d4d" 
     d="M 4 4 L 4 5 L 28 5 L 28 4 L 4 4 z M 4 7 L 4 8 L 23 8 L 23 7 L 4 7 z M 14 14 L 14 15 L 28 15 L 28 14 L 14 14 z M 14 17 L 14 18 L 18 18 L 18 17 L 14 17 z M 20 17 L 20 18 L 28 18 L 28 17 L 20 17 z M 14 24 L 14 25 L 28 25 L 28 24 L 14 24 z M 14 27 L 14 28 L 22 28 L 22 27 L 14 27 z M 24 28 L 24 29 L 28 29 L 28 28 L 24 28 z "
     />
 <path 
     style="fill:#1d99f3" 
     d="M 4 13 L 8 19 L 12 13 L 4 13 z "
     />
</svg>
